<?xml version="1.0" encoding="UTF-8"?>
<map version="1.10" tiledversion="1.11.2" orientation="orthogonal" renderorder="right-down" width="27" height="16" tilewidth="16" tileheight="16" infinite="0" nextlayerid="3" nextobjectid="14">
 <tileset firstgid="1" source="tileset.tsx"/>
 <layer id="1" name="Tile Layer 1" width="27" height="16">
  <data encoding="csv">
0,0,0,3,0,0,0,0,0,0,0,0,0,0,0,0,0,0,0,0,0,0,0,3,0,0,0,
0,0,0,3,0,0,0,0,0,0,0,0,0,0,0,0,0,0,0,0,0,0,0,3,0,0,0,
0,0,0,3,0,0,0,0,0,0,0,0,0,0,0,0,0,0,0,0,0,0,0,3,0,0,0,
0,0,0,3,0,0,0,0,0,0,0,0,0,4,0,0,0,0,0,0,0,0,0,3,0,0,0,
0,0,0,3,0,0,0,0,0,0,0,3,3,3,3,3,0,0,0,0,0,0,0,3,0,0,0,
0,0,0,3,0,0,0,0,0,0,0,0,0,0,0,0,0,0,0,0,0,0,0,3,0,0,0,
0,0,0,3,3,3,0,0,0,0,0,0,0,0,0,0,0,0,0,0,0,3,3,3,0,0,0,
0,0,0,3,0,0,0,0,0,0,0,0,0,4,0,0,0,0,0,0,0,0,0,3,0,0,0,
0,0,0,3,0,0,0,0,0,0,0,3,3,3,3,3,0,0,0,0,0,0,0,3,0,0,0,
0,0,0,3,0,0,0,0,0,0,0,0,0,0,0,0,0,0,0,0,0,0,0,3,0,0,0,
0,0,0,3,3,3,0,0,0,0,0,0,0,0,0,0,0,0,0,0,0,3,3,3,0,0,0,
0,0,0,3,0,0,0,0,0,0,0,0,0,4,0,0,0,0,0,0,0,0,0,3,0,0,0,
0,0,0,3,0,0,0,0,0,0,0,3,3,3,3,3,0,0,0,0,0,0,0,3,0,0,0,
0,0,0,3,0,0,0,0,0,0,0,0,0,0,0,0,0,0,0,0,0,0,0,3,0,0,0,
0,0,0,3,0,0,0,0,0,0,0,0,0,0,0,0,0,0,0,0,0,0,0,3,0,0,0,
0,0,0,3,0,0,0,0,0,0,0,0,0,0,0,0,0,0,0,0,0,0,0,3,0,0,0
</data>
 </layer>
 <objectgroup id="2" name="Ground">
  <object id="2" name="dragon" type="DragonSlime" x="208" y="224" width="16" height="16">
   <properties>
    <property name="lockTime" type="float" value="0.2"/>
    <property name="velocity" value="vec2(0.3, 0.2)"/>
   </properties>
  </object>
  <object id="3" name="dragon_slot_laser" type="DragonSpawnPoint" x="32" y="48" width="16" height="16"/>
  <object id="9" name="dragon_slot_laser" type="DragonSpawnPoint" x="32" y="112" width="16" height="16"/>
  <object id="10" name="dragon_slot_laser" type="DragonSpawnPoint" x="32" y="176" width="16" height="16"/>
  <object id="11" name="dragon_slot_laser" type="DragonSpawnPoint" x="384" y="48" width="16" height="16"/>
  <object id="12" name="dragon_slot_laser" type="DragonSpawnPoint" x="384" y="112" width="16" height="16"/>
  <object id="13" name="dragon_slot_laser" type="DragonSpawnPoint" x="384" y="176" width="16" height="16"/>
 </objectgroup>
</map>
