<?xml version="1.0" encoding="UTF-8"?>
<map version="1.10" tiledversion="1.11.2" orientation="orthogonal" renderorder="right-down" width="30" height="20" tilewidth="16" tileheight="16" infinite="0" nextlayerid="2" nextobjectid="1">
 <tileset firstgid="1" source="grass.tsx"/>
 <tileset firstgid="16" source="../../../LittleJS/examples/RainbowDefense/assets/grass.tsx"/>
 <layer id="1" name="Tile Layer 1" width="30" height="20">
  <data encoding="csv">
4,12,12,12,12,12,12,12,12,12,12,12,12,12,12,12,12,12,12,12,12,12,12,12,12,12,12,12,12,5,
8,0,0,0,0,0,0,0,0,0,0,0,0,0,0,0,0,0,0,0,0,0,0,0,0,0,0,0,0,6,
8,0,1,2,2,2,2,2,3,0,0,0,0,0,0,0,0,0,0,0,0,0,0,0,0,0,0,0,0,6,
8,0,6,7,7,7,7,7,8,0,0,0,0,0,0,0,0,0,0,0,0,0,0,0,0,0,0,0,0,6,
8,0,6,7,7,7,7,7,8,0,0,0,0,0,0,0,0,0,0,0,0,0,0,0,0,0,0,0,0,6,
8,0,6,7,7,7,7,7,8,0,0,0,0,0,0,0,0,0,0,0,0,0,0,0,0,0,0,0,0,6,
8,0,6,7,7,7,7,7,9,2,2,2,2,2,2,2,2,2,2,2,2,3,0,0,0,0,0,0,0,6,
8,0,11,12,12,12,12,12,12,12,12,12,12,12,12,12,12,12,12,12,5,8,0,0,0,0,0,0,0,6,
8,0,0,0,0,0,0,0,0,0,0,0,0,0,0,0,0,0,0,0,6,8,0,0,0,0,0,0,0,6,
8,0,0,0,0,0,0,0,0,0,0,0,0,0,0,0,0,0,0,0,6,8,0,0,0,0,0,0,0,6,
8,0,0,0,0,0,0,0,0,0,0,0,0,0,0,0,0,0,0,0,6,8,0,0,0,0,0,0,0,6,
8,0,0,0,0,0,0,0,0,0,0,0,0,0,0,0,0,0,0,0,6,8,0,0,0,0,0,0,0,6,
8,0,0,0,0,0,0,0,0,0,0,0,0,1,2,3,0,0,0,0,11,13,0,0,0,0,0,0,0,6,
8,0,0,0,0,0,0,0,0,0,0,0,0,11,12,13,0,0,0,0,0,0,0,0,0,0,0,0,0,6,
8,0,0,0,0,0,0,0,0,0,0,0,0,0,0,0,0,0,0,0,0,0,0,0,0,0,0,0,0,6,
8,0,0,0,0,0,0,1,2,2,3,0,0,0,0,0,0,0,0,0,0,0,0,0,0,0,0,0,0,6,
8,0,0,0,0,0,0,11,12,12,13,0,0,0,0,0,0,16,18,0,0,0,0,0,0,0,0,0,0,6,
8,0,0,0,0,0,0,0,0,0,0,0,0,0,0,0,0,26,28,0,0,0,0,0,0,0,0,0,0,6,
8,0,0,0,0,0,0,0,0,0,0,0,0,0,0,0,0,0,0,0,0,0,0,0,0,0,0,0,0,6,
9,2,2,2,2,2,2,2,2,2,2,2,2,2,2,2,2,2,2,2,2,2,2,2,2,2,2,2,2,10
</data>
 </layer>
</map>
